src/images/telegramIcon.svg

<svg width="25" height="25" viewBox="0 0 25 25" fill="none" xmlns="http://www.w3.org/2000/svg">
<rect width="25" height="25" rx="5" fill="#282A33"/>
<path d="M5.22189 12.0884C6.72488 11.2605 8.40263 10.5695 9.97024 9.87505C12.6671 8.73751 15.3747 7.61969 18.1097 6.57901C18.6418 6.40169 19.5979 6.22828 19.6916 7.01685C19.6403 8.13306 19.4291 9.24274 19.2843 10.3524C18.9166 12.7927 18.4917 15.2246 18.0773 17.6569C17.9345 18.467 16.9196 18.8865 16.2702 18.368C14.7096 17.3138 13.137 16.2699 11.5962 15.1913C11.0915 14.6785 11.5595 13.942 12.0103 13.5758C13.2957 12.3091 14.6589 11.2328 15.8771 9.9006C16.2057 9.10704 15.2348 9.77583 14.9145 9.98074C13.1548 11.1934 11.4382 12.4801 9.58287 13.5458C8.63519 14.0675 7.53065 13.6217 6.5834 13.3306C5.73407 12.9789 4.48949 12.6247 5.22181 12.0885L5.22189 12.0884Z" fill="white"/>
</svg>

<svg xmlns="http://www.w3.org/2000/svg" width="25" height="25" fill="none" viewBox="0 0 25 25">
	<rect width="25" height="25" fill="#282A33" rx="5"/>
	<path fill="#fff" d="M5.222 12.088c1.503-.827 3.18-1.518 4.748-2.213 2.697-1.137 5.405-2.255 8.14-3.296.532-.177 1.488-.35 1.582.438-.052 1.116-.263 2.226-.408 3.335-.367 2.44-.792 4.873-1.207 7.305-.143.81-1.157 1.23-1.807.711-1.56-1.054-3.133-2.098-4.674-3.177-.505-.513-.037-1.249.414-1.615 1.286-1.267 2.649-2.343 3.867-3.675.329-.794-.642-.125-.963.08-1.76 1.212-3.476 2.5-5.331 3.565-.948.522-2.052.076-3-.215-.849-.352-2.094-.706-1.361-1.242Z"/>
</svg>
